X:1
T: The Scaffie's Cairt
C:C Sherrit
R:Jig
Q:180
K:A
M:6/8
L:1/16
cd|:e4c2 A2B2A2|a2e2c2 A4c2|d2f2d2 c2e2c2|B2=G2B2 d2c2d2|
e4c2 A2B2A2|a2e2c2 A4c2|B2=G2B2 e2d2B2|1B2A2A2 A2c2d2:|2B2A2A2 A4B2|
|:A4a2 a2e2c2|a2e2c2 A2B2A2|=G4A2 B2G2B2|d2e2d2 B2A2=G2|
A4a2 a2e2c2|a2e2c2 A4c2|B2=G2B2 e2d2B2|1B2A2A2 A4B2:|2B2A2A2 A4||
